src/assets/images/mouth/30.svg

<svg width="32" height="32" viewBox="0 0 32 32" fill="none" xmlns="http://www.w3.org/2000/svg">
<path d="M15.9988 26C8.99878 26 8.99878 19 8.99878 19H22.9988C22.9988 19 22.9988 26 15.9988 26Z" fill="url(#paint0_radial_922_485)"/>
<g filter="url(#filter0_i_922_485)">
<path d="M16.0155 31C21.0155 31 20.8855 24.8 21.0155 23.75C21.1155 22.9 20.6655 22.47 20.1755 22.18C19.6855 21.89 18.2155 21.62 16.0155 21.62C13.8155 21.62 12.3555 21.89 11.8555 22.18C11.3555 22.47 10.9055 22.9 11.0155 23.75C11.1455 24.8 11.0155 31 16.0155 31Z" fill="url(#paint1_radial_922_485)"/>
</g>
<g opacity="0.5" filter="url(#filter1_f_922_485)">
<path d="M18 26.5C19 26 20 25 20 23.5" stroke="#71FCB2"/>
</g>
<path d="M22.8588 20.43C22.9488 19.97 22.9988 19.49 22.9988 19C18.3388 19 11.8388 19 8.99878 19C8.99878 19.49 9.04878 19.96 9.13878 20.43H22.8588Z" fill="url(#paint2_linear_922_485)"/>
<path fill-rule="evenodd" clip-rule="evenodd" d="M15.8488 30.9977C15.527 30.9512 15.2194 30.8481 14.9349 30.6838C13.2353 29.7026 13.0087 26.9132 14.4287 24.4535C15.2256 23.0734 16.3715 22.0904 17.5242 21.6667C18.889 21.7562 19.808 21.9625 20.1755 22.18C20.6655 22.47 21.1155 22.9 21.0155 23.75C21.0027 23.8533 20.9924 24.0066 20.9795 24.1988C20.8974 25.4234 20.709 28.232 19.0875 29.8307C18.6047 30.2451 18.0875 30.5612 17.5672 30.764C17.1143 30.9153 16.6 31 16.0155 31C15.9593 31 15.9037 30.9992 15.8488 30.9977Z" fill="url(#paint3_radial_922_485)"/>
<path fill-rule="evenodd" clip-rule="evenodd" d="M16 22.5C16.2761 22.5 16.5 22.7239 16.5 23V23.5C16.5 23.5283 16.4977 23.556 16.4932 23.583C17.0793 23.7869 17.5 24.3443 17.5 25C17.5 25.2761 17.2761 25.5 17 25.5C16.7239 25.5 16.5 25.2761 16.5 25C16.5 24.7239 16.2761 24.5 16 24.5H15.9271C15.6912 24.5 15.5 24.6912 15.5 24.9271C15.5 25.0888 15.5914 25.2367 15.7361 25.309L16.7111 25.7966C17.1946 26.0383 17.5 26.5324 17.5 27.0729C17.5 27.7138 17.0776 28.256 16.496 28.4363C16.4986 28.4571 16.5 28.4784 16.5 28.5V29C16.5 29.2761 16.2761 29.5 16 29.5C15.7239 29.5 15.5 29.2761 15.5 29V28.5C15.5 28.4717 15.5023 28.444 15.5068 28.417C14.9207 28.2131 14.5 27.6557 14.5 27C14.5 26.7239 14.7239 26.5 15 26.5C15.2761 26.5 15.5 26.7239 15.5 27C15.5 27.2761 15.7239 27.5 16 27.5H16.0729C16.3088 27.5 16.5 27.3088 16.5 27.0729C16.5 26.9112 16.4086 26.7633 16.2639 26.691L15.2889 26.2034C14.8054 25.9617 14.5 25.4676 14.5 24.9271C14.5 24.2862 14.9224 23.744 15.504 23.5637C15.5014 23.5429 15.5 23.5216 15.5 23.5V23C15.5 22.7239 15.7239 22.5 16 22.5Z" fill="#402A32"/>
<defs>
<filter id="filter0_i_922_485" x="10.9988" y="21.62" width="11.0308" height="10.38" filterUnits="userSpaceOnUse" color-interpolation-filters="sRGB">
<feFlood flood-opacity="0" result="BackgroundImageFix"/>
<feBlend mode="normal" in="SourceGraphic" in2="BackgroundImageFix" result="shape"/>
<feColorMatrix in="SourceAlpha" type="matrix" values="0 0 0 0 0 0 0 0 0 0 0 0 0 0 0 0 0 0 127 0" result="hardAlpha"/>
<feOffset dx="1" dy="1"/>
<feGaussianBlur stdDeviation="1"/>
<feComposite in2="hardAlpha" operator="arithmetic" k2="-1" k3="1"/>
<feColorMatrix type="matrix" values="0 0 0 0 0 0 0 0 0 0 0 0 0 0 0 0 0 0 0.24 0"/>
<feBlend mode="normal" in2="shape" result="effect1_innerShadow_922_485"/>
</filter>
<filter id="filter1_f_922_485" x="16.7764" y="22.5" width="4.72361" height="5.4472" filterUnits="userSpaceOnUse" color-interpolation-filters="sRGB">
<feFlood flood-opacity="0" result="BackgroundImageFix"/>
<feBlend mode="normal" in="SourceGraphic" in2="BackgroundImageFix" result="shape"/>
<feGaussianBlur stdDeviation="0.5" result="effect1_foregroundBlur_922_485"/>
</filter>
<radialGradient id="paint0_radial_922_485" cx="0" cy="0" r="1" gradientUnits="userSpaceOnUse" gradientTransform="translate(15.9988 27.5556) rotate(-90) scale(8.55556 17.1111)">
<stop stop-color="#F70A8D"/>
<stop offset="1" stop-color="#89029C"/>
</radialGradient>
<radialGradient id="paint1_radial_922_485" cx="0" cy="0" r="1" gradientUnits="userSpaceOnUse" gradientTransform="translate(16.5 30.5) rotate(-92.8624) scale(10.0125 17.406)">
<stop stop-color="#56B7B8"/>
<stop offset="0.391637" stop-color="#50F099"/>
<stop offset="0.674854" stop-color="#45CD7F"/>
<stop offset="0.832423" stop-color="#3BA66E"/>
<stop offset="0.886239" stop-color="#477063"/>
</radialGradient>
<linearGradient id="paint2_linear_922_485" x1="15.9988" y1="19" x2="15.9988" y2="20.43" gradientUnits="userSpaceOnUse">
<stop stop-color="#ECCDFF"/>
<stop offset="1" stop-color="white"/>
</linearGradient>
<radialGradient id="paint3_radial_922_485" cx="0" cy="0" r="1" gradientUnits="userSpaceOnUse" gradientTransform="translate(19 26.5) rotate(113.962) scale(4.92443 2.18283)">
<stop stop-color="#72FDB3"/>
<stop offset="0.603097" stop-color="#72FDB3" stop-opacity="0"/>
</radialGradient>
</defs>
</svg>

<svg width="32" height="32" fill="none" xmlns="http://www.w3.org/2000/svg"><path d="M15.999 26c-7 0-7-7-7-7h14s0 7-7 7z" fill="url(#a)"/><g filter="url(#b)"><path d="M16.015 31c5 0 4.87-6.2 5-7.25.1-.85-.35-1.28-.84-1.57-.49-.29-1.96-.56-4.16-.56s-3.66.27-4.16.56c-.5.29-.95.72-.84 1.57.13 1.05 0 7.25 5 7.25z" fill="url(#c)"/></g><g opacity=".5" filter="url(#d)"><path d="M18 26.5c1-.5 2-1.5 2-3" stroke="#71FCB2"/></g><path d="M22.859 20.43c.09-.46.14-.94.14-1.43h-14c0 .49.05.96.14 1.43h13.72z" fill="url(#e)"/><path fill-rule="evenodd" clip-rule="evenodd" d="M15.849 30.998a2.543 2.543 0 0 1-.914-.314c-1.7-.981-1.926-3.77-.506-6.23.797-1.38 1.943-2.364 3.095-2.787 1.365.09 2.284.295 2.651.513.49.29.94.72.84 1.57a9.433 9.433 0 0 0-.035.449c-.083 1.224-.271 4.033-1.893 5.632-.482.414-1 .73-1.52.933a4.868 4.868 0 0 1-1.718.234z" fill="url(#f)"/><path fill-rule="evenodd" clip-rule="evenodd" d="M16 22.5a.5.5 0 0 1 .5.5v.5a.504.504 0 0 1-.007.083A1.5 1.5 0 0 1 17.5 25a.5.5 0 0 1-1 0 .5.5 0 0 0-.5-.5h-.073a.427.427 0 0 0-.19.809l.974.488a1.427 1.427 0 0 1-.215 2.64c.003.02.004.041.004.063v.5a.5.5 0 0 1-1 0v-.5c0-.028.002-.056.007-.083A1.5 1.5 0 0 1 14.5 27a.5.5 0 0 1 1 0 .5.5 0 0 0 .5.5h.073a.427.427 0 0 0 .19-.809l-.974-.488a1.427 1.427 0 0 1 .215-2.64.514.514 0 0 1-.004-.063V23a.5.5 0 0 1 .5-.5z" fill="#402A32"/><defs><radialGradient id="a" cx="0" cy="0" r="1" gradientUnits="userSpaceOnUse" gradientTransform="matrix(0 -8.55556 17.1111 0 15.999 27.556)"><stop stop-color="#F70A8D"/><stop offset="1" stop-color="#89029C"/></radialGradient><radialGradient id="c" cx="0" cy="0" r="1" gradientUnits="userSpaceOnUse" gradientTransform="matrix(-.5 -10 17.38428 -.86921 16.5 30.5)"><stop stop-color="#56B7B8"/><stop offset=".392" stop-color="#50F099"/><stop offset=".675" stop-color="#45CD7F"/><stop offset=".832" stop-color="#3BA66E"/><stop offset=".886" stop-color="#477063"/></radialGradient><radialGradient id="f" cx="0" cy="0" r="1" gradientUnits="userSpaceOnUse" gradientTransform="matrix(-1.99996 4.50002 -1.9947 -.88651 19 26.5)"><stop stop-color="#72FDB3"/><stop offset=".603" stop-color="#72FDB3" stop-opacity="0"/></radialGradient><filter id="b" x="10.999" y="21.62" width="11.031" height="10.38" filterUnits="userSpaceOnUse" color-interpolation-filters="sRGB"><feFlood flood-opacity="0" result="BackgroundImageFix"/><feBlend in="SourceGraphic" in2="BackgroundImageFix" result="shape"/><feColorMatrix in="SourceAlpha" values="0 0 0 0 0 0 0 0 0 0 0 0 0 0 0 0 0 0 127 0" result="hardAlpha"/><feOffset dx="1" dy="1"/><feGaussianBlur stdDeviation="1"/><feComposite in2="hardAlpha" operator="arithmetic" k2="-1" k3="1"/><feColorMatrix values="0 0 0 0 0 0 0 0 0 0 0 0 0 0 0 0 0 0 0.24 0"/><feBlend in2="shape" result="effect1_innerShadow_922_485"/></filter><filter id="d" x="16.776" y="22.5" width="4.724" height="5.447" filterUnits="userSpaceOnUse" color-interpolation-filters="sRGB"><feFlood flood-opacity="0" result="BackgroundImageFix"/><feBlend in="SourceGraphic" in2="BackgroundImageFix" result="shape"/><feGaussianBlur stdDeviation=".5" result="effect1_foregroundBlur_922_485"/></filter><linearGradient id="e" x1="15.999" y1="19" x2="15.999" y2="20.43" gradientUnits="userSpaceOnUse"><stop stop-color="#ECCDFF"/><stop offset="1" stop-color="#fff"/></linearGradient></defs></svg>
